Origami/16x16/apps/tormessenger.svg

<svg width="16" height="16" version="1.1" viewBox="0 0 16 16" xmlns="http://www.w3.org/2000/svg">
 <path d="m8 0c-3.9018 0-7.1471 2.5954-7.8535 6.0273a8 7.5 0 0 0 -0.18361 1.5762 8 7.5 0 0 0 3.0371 5.8735v2.523l1.7773-1.52a8 7.5 0 0 0 3.1856 0.624 8 7.5 0 0 0 7.8551 -6.1079c0.117-0.5057 0.182-1.0302 0.182-1.5684 0-4.1027-3.582-7.4277-8-7.4277z" style="fill:#bad632"/>
 <path d="m8 3a5 5 0 0 0 -5 5 5 5 0 0 0 4 4.898438v2.146484a8 7.5 0 0 0 0.9628906 0.058594 8 7.5 0 0 0 0.0371094 -0.001954v-2.101562a5 5 0 0 0 5 -5 5 5 0 0 0 -5 -5z" style="fill:#578418"/>
 <path d="m8 5a3 3 0 0 0 -3 3v3.992188a5 5 0 0 0 1 0.582031v-2.341797a3 3 0 0 0 2 0.767578 3 3 0 0 0 3 -3 3 3 0 0 0 -3 -3z" style="fill:#252920"/>
</svg>

<?xml version="1.0" encoding="UTF-8" standalone="no"?>
<svg
   xmlns:dc="http://purl.org/dc/elements/1.1/"
   xmlns:cc="http://creativecommons.org/ns#"
   xmlns:rdf="http://www.w3.org/1999/02/22-rdf-syntax-ns#"
   xmlns:svg="http://www.w3.org/2000/svg"
   xmlns="http://www.w3.org/2000/svg"
   viewBox="0 0 16 16"
   version="1.1"
   width="16"
   height="16"
   id="svg2">
  <defs
     id="defs8" />
  <metadata
     id="metadata51">
    <rdf:RDF>
      <cc:Work
         rdf:about="">
        <dc:format>image/svg+xml</dc:format>
        <dc:type
           rdf:resource="http://purl.org/dc/dcmitype/StillImage" />
        <dc:title></dc:title>
      </cc:Work>
    </rdf:RDF>
  </metadata>
  <path
     style="fill:#bad632;fill-opacity:1"
     d="M 8,0 C 4.0982,0 0.8529,2.5954 0.1465,6.0273 a 8,7.5 0 0 0 -0.18361,1.5762 8,7.5 0 0 0 3.0371,5.8735 l 0,2.523 1.7773,-1.52 a 8,7.5 0 0 0 3.1856,0.624 8,7.5 0 0 0 7.8551,-6.1079 c 0.117,-0.5057 0.182,-1.0302 0.182,-1.5684 0,-4.1027 -3.582,-7.4277 -8,-7.4277 z"
     id="path37" />
  <path
     id="path4136"
     d="m 8,3 a 5,5 0 0 0 -5,5 5,5 0 0 0 4,4.898438 l 0,2.146484 A 8,7.5 0 0 0 7.9628906,15.103516 8,7.5 0 0 0 8,15.101562 L 8,13 A 5,5 0 0 0 13,8 5,5 0 0 0 8,3 Z"
     style="opacity:1;fill:#578418;fill-opacity:1;stroke:none;stroke-width:4;stroke-linecap:round;stroke-linejoin:round;stroke-miterlimit:4;stroke-dasharray:none;stroke-opacity:1" />
  <path
     id="path4138"
     d="M 8,5 A 3,3 0 0 0 5,8 l 0,3.992188 a 5,5 0 0 0 1,0.582031 L 6,10.232422 A 3,3 0 0 0 8,11 3,3 0 0 0 11,8 3,3 0 0 0 8,5 Z"
     style="opacity:1;fill:#252920;fill-opacity:1;stroke:none;stroke-width:4;stroke-linecap:round;stroke-linejoin:round;stroke-miterlimit:4;stroke-dasharray:none;stroke-opacity:1" />
</svg>
